X:23
T:Frost is All Over
M:6/8
R:reel
C:Traditional
K:D
AD/D/D DFA | AAd (B/d/B)A | AB/A/A FF/F/F | GFG EFG |
AD/D/D DFA | AAd (B/d/B)A | AB/A/A FE/E/E |[1 EDD D3 :|[2 EDD D2e |
|: fd/d/d ede | fd/d/d d2e | fef def | gg/g/g efg |
efe BA/A/A | AdA F2A | (A/B/A)A FE/E/E |[1 EDD D2 e :|[2 EDD D3 |]

